images/logo_footer.svg

<?xml version="1.0" encoding="UTF-8" standalone="no"?>
<svg width="228px" height="114px" viewBox="0 0 228 114" version="1.1" xmlns="http://www.w3.org/2000/svg" xmlns:xlink="http://www.w3.org/1999/xlink" xmlns:sketch="http://www.bohemiancoding.com/sketch/ns">
    <!-- Generator: Sketch 3.4.4 (17249) - http://www.bohemiancoding.com/sketch -->
    <title>tieto</title>
    <desc>Created with Sketch.</desc>
    <defs>
        <path id="path-1" d="M0.0623255814,0.0293023256 L133.531519,0.0293023256 L133.531519,44.9372093 L0.0623255814,44.9372093 L0.0623255814,0.0293023256 Z"></path>
    </defs>
    <g id="Page-1" stroke="none" stroke-width="1" fill="none" fill-rule="evenodd" sketch:type="MSPage">
        <g id="logos" sketch:type="MSArtboardGroup" transform="translate(-1015.000000, -907.000000)">
            <g id="tieto_logo_blue" sketch:type="MSLayerGroup" transform="translate(1062.000000, 942.000000)">
                <g id="Group-5">
                    <mask id="mask-2" sketch:name="Clip 2" fill="white">
                        <use xlink:href="#path-1"></use>
                    </mask>
                    <g id="Clip-2"></g>
                    <path d="M64.1444496,24.2173256 C63.9460465,20.5430233 61.289938,17.5039535 57.6044186,17.5039535 C53.7101085,17.5039535 51.1173643,20.2290698 50.4764496,24.2173256 L64.1444496,24.2173256 L64.1444496,24.2173256 Z M50.4764496,30.237907 C50.6655039,34.7347674 53.3216124,37.7162791 57.9929147,37.7162791 C60.6490233,37.7162791 63.2417674,36.5106977 64.2711783,34.1026744 L74.5787907,34.1026744 C72.5646357,41.7045349 65.3733023,45 57.8568372,45 C46.9083101,45 39.4635194,38.5377907 39.4635194,27.5127907 C39.4635194,17.4422093 47.6842636,10.215 57.6044186,10.215 C69.6561085,10.215 75.6809147,19.0894186 75.1573798,30.237907 L50.4764496,30.237907 L50.4764496,30.237907 Z" id="Fill-1" fill="#62b3e5" sketch:type="MSShapeGroup" mask="url(#mask-2)"></path>
                    <path d="M115.769767,36.7618605 C120.89293,36.7618605 122.50924,31.8233721 122.50924,27.6404651 C122.50924,23.4575581 120.89293,18.4531395 115.769767,18.4531395 C110.656992,18.4531395 109.103008,23.4575581 109.103008,27.6404651 C109.103008,31.8233721 110.656992,36.7618605 115.769767,36.7618605 L115.769767,36.7618605 Z M115.769767,10.215 C126.204109,10.215 133.531519,17.7551163 133.531519,27.6404651 C133.531519,37.525814 126.204109,45 115.769767,45 C105.344775,45 98.0900775,37.525814 98.0900775,27.6404651 C98.0900775,17.7551163 105.344775,10.215 115.769767,10.215 L115.769767,10.215 Z" id="Fill-3" fill="#62b3e5" sketch:type="MSShapeGroup" mask="url(#mask-2)"></path>
                    <path d="M23.3887132,18.2323256 L16.5869147,18.2323256 L16.5869147,32.8646512 C16.5869147,35.5405814 18.1408992,36.1266279 20.5342016,36.1266279 C21.4379225,36.1266279 22.4133178,35.9947674 23.3887132,35.9947674 L23.3887132,44.1544186 C21.3745581,44.2182558 19.3687132,44.4819767 17.3628682,44.4819767 C7.96832558,44.4819767 5.56463566,41.7380233 5.56463566,32.537093 L5.56463566,18.2323256 L0,18.2323256 L0,11.0553488 L5.56463566,11.0553488 L5.56463566,0.0303488372 L16.5869147,0.0303488372 L16.5869147,11.0553488 L23.3887132,11.0553488 L23.3887132,18.2323256" id="Fill-4" fill="#62b3e5" sketch:type="MSShapeGroup" mask="url(#mask-2)"></path>
                </g>
                <path d="M26,10.9947823 L36.9989626,10.9947823 L36.9989626,44 L26,44 L26,10.9947823 Z M26,0 L37,0 L37,7.97267811 L26,7.97267811 L26,0 Z" id="Fill-6" fill="#62b3e5" sketch:type="MSShapeGroup"></path>
                <path d="M98,18.0170449 L91.3112453,18.0170449 L91.3112453,32.5007063 C91.3112453,35.1494491 92.8394031,35.7295414 95.1929295,35.7295414 C96.0816308,35.7295414 97.0408154,35.5990206 98,35.5990206 L98,43.6757698 C96.0193196,43.7389585 94.0468112,44 92.0753242,44 C82.8358945,44 80.4721531,41.283925 80.4721531,32.1764761 L80.4721531,18.0170449 L75,18.0170449 L75,10.9129862 L80.4721531,10.9129862 L80.4721531,0 L91.3112453,0 L91.3112453,10.9129862 L98,10.9129862 L98,18.0170449" id="Fill-7" fill="#62b3e5" sketch:type="MSShapeGroup"></path>
            </g>
        </g>
    </g>
</svg>

<svg width="228" height="114" viewBox="0 0 228 114" xmlns="http://www.w3.org/2000/svg" xmlns:xlink="http://www.w3.org/1999/xlink"><title>tieto</title><defs><path id="a" d="M.062.03h133.47v44.907H.062V.03z"/></defs><g fill="none" fill-rule="evenodd"><g transform="translate(47 35)"><mask id="b" fill="#fff"><use xlink:href="#a"/></mask><path d="M64.144 24.217c-.198-3.674-2.854-6.713-6.54-6.713-3.894 0-6.487 2.725-7.128 6.713h13.668zm-13.668 6.02c.19 4.498 2.846 7.48 7.517 7.48 2.656 0 5.249-1.206 6.278-3.614H74.58C72.565 41.705 65.373 45 57.857 45c-10.949 0-18.393-6.462-18.393-17.487 0-10.07 8.22-17.298 18.14-17.298 12.052 0 18.077 8.874 17.553 20.023h-24.68zm65.294 6.525c5.123 0 6.74-4.939 6.74-9.122 0-4.182-1.617-9.187-6.74-9.187-5.113 0-6.667 5.005-6.667 9.187 0 4.183 1.554 9.122 6.667 9.122zm0-26.547c10.434 0 17.762 7.54 17.762 17.425 0 9.886-7.328 17.36-17.762 17.36-10.425 0-17.68-7.474-17.68-17.36 0-9.885 7.255-17.425 17.68-17.425zm-92.381 8.017h-6.802v14.633c0 2.676 1.554 3.262 3.947 3.262.904 0 1.88-.132 2.855-.132v8.16c-2.014.063-4.02.327-6.026.327-9.395 0-11.798-2.744-11.798-11.945V18.232H0v-7.177h5.565V.03h11.022v11.025h6.802v7.177" fill="#62b3e5" mask="url(#b)"/></g><path d="M73 45.995h10.999V79H73V45.995zM73 35h11v7.973H73V35zm72 18.017h-6.689v14.484c0 2.648 1.528 3.229 3.882 3.229.889 0 1.848-.131 2.807-.131v8.077c-1.98.063-3.953.324-5.925.324-9.24 0-11.603-2.716-11.603-11.824V53.017H122v-7.104h5.472V35h10.84v10.913H145v7.104" fill="#62b3e5"/></g></svg>
